dist/img/icons/purse.svg

<svg width="20" height="20" viewBox="0 0 20 20" xmlns="http://www.w3.org/2000/svg">
<path d="M4.66093 4.05526L12.6121 1.87896L12.191 1.0255C11.9155 0.470759 11.2436 0.241675 10.6904 0.517924L3.57241 4.05526H4.66093Z" fill="#fff"/>
<path d="M15.0803 1.94183C14.9818 1.94183 14.8832 1.95531 14.7846 1.98226L12.9167 2.49433L7.21202 4.05525H13.6872H16.5093L16.1599 2.77058C16.0255 2.26974 15.573 1.94183 15.0803 1.94183Z" fill="#fff"/>
<path d="M17.6762 4.84137H17.4208H17.0737H16.7265H14.0769H4.34065H3.06399H1.98891H1.78957H1.12212C0.768237 4.84137 0.452431 5.00532 0.246374 5.2636C0.152304 5.38264 0.0806313 5.51964 0.0403157 5.67012C0.0156783 5.76445 0 5.86327 0 5.96433V6.09909V7.37927V18.4764C0 19.0963 0.501706 19.5994 1.11988 19.5994H17.6739C18.2921 19.5994 18.7938 19.0963 18.7938 18.4764V15.3433H12.1485C11.098 15.3433 10.2447 14.4876 10.2447 13.4343V12.4057V12.0575V11.7094V10.9368C10.2447 10.4203 10.4507 9.95088 10.7844 9.60725C11.0801 9.30178 11.4765 9.09516 11.92 9.0435C11.9939 9.03454 12.0701 9.03003 12.1462 9.03003H17.8621H18.2092H18.5564H18.7938V5.96433C18.7961 5.34446 18.2944 4.84137 17.6762 4.84137Z" fill="#fff"/>
<path d="M19.58 10.1036C19.468 10.0003 19.3358 9.92166 19.188 9.87C19.0738 9.83185 18.9528 9.80939 18.8252 9.80939H18.7961H18.7737H18.4265H17.1745H12.1485C11.5303 9.80939 11.0286 10.3125 11.0286 10.9324V11.4916V11.8397V12.1878V13.4321C11.0286 14.0519 11.5303 14.555 12.1485 14.555H18.7961H18.8252C18.9528 14.555 19.0738 14.5326 19.188 14.4944C19.3358 14.445 19.468 14.3641 19.58 14.2608C19.8039 14.0564 19.9451 13.76 19.9451 13.4321V10.9324C19.9451 10.6044 19.8039 10.3079 19.58 10.1036ZM14.4868 12.4057C14.4868 12.7156 14.2359 12.9671 13.9268 12.9671H13.555C13.2459 12.9671 12.9951 12.7156 12.9951 12.4057V12.0328C12.9951 11.8532 13.078 11.6937 13.2101 11.5926C13.3064 11.5185 13.4251 11.4714 13.555 11.4714H13.6491H13.9268C14.2359 11.4714 14.4868 11.7229 14.4868 12.0328V12.4057Z" fill="#fff"/>
</svg>

<svg width="20" height="20" viewBox="0 0 20 20" xmlns="http://www.w3.org/2000/svg"><path d="M4.66 4.055l7.952-2.176-.421-.853a1.119 1.119 0 00-1.5-.508l-7.12 3.537H4.66zm10.42-2.113a1.11 1.11 0 00-.295.04l-1.868.512-5.705 1.561h9.297l-.35-1.284a1.119 1.119 0 00-1.079-.83zm2.596 2.899H1.122a1.117 1.117 0 00-1.082.83c-.024.093-.04.192-.04.293v12.512c0 .62.502 1.123 1.12 1.123h16.554c.618 0 1.12-.503 1.12-1.123v-3.133h-6.646a1.908 1.908 0 01-1.903-1.909v-2.497c0-.517.206-.986.54-1.33a1.883 1.883 0 011.361-.577h6.648V5.964c.002-.62-.5-1.123-1.118-1.123z" fill="#fff"/><path d="M19.58 10.104a1.119 1.119 0 00-.755-.295H12.15c-.619 0-1.12.504-1.12 1.123v2.5c0 .62.501 1.123 1.12 1.123h6.676c.127 0 .248-.022.362-.06a1.12 1.12 0 00.757-1.062v-2.5a1.12 1.12 0 00-.365-.83zm-5.093 2.302a.56.56 0 01-.56.561h-.372a.56.56 0 01-.56-.561v-.373a.565.565 0 01.56-.561h.372c.309 0 .56.25.56.56v.374z" fill="#fff"/></svg>
